**kern	**silbe	**kern	**silbe
*ICvox	*	*ICvox	*
*G:	*	*G:	*
*M4/4	*	*M4/4	*
*clefG2	*	*clefG2	*
r;	.	r;	.
=1	=1	=1	=1
1r	.	1r	.
=2	=2	=2	=2
1r	.	1r	.
=3	=3	=3	=3
1r	.	1r	.
=4	=4	=4	=4
1r	.	1r	.
=5	=5	=5	=5
4r	.	1r	.
16B	I	.	.
8.d	don't	.	.
4d	know	.	.
16A	where	.	.
8A	I'm	.	.
[16A	go-	.	.
=6	=6	=6	=6
8A]	_	1r	.
4G	-in'	.	.
8r	.	.	.
2r	.	.	.
=7	=7	=7	=7
4r	.	1r	.
16B	but	.	.
8d	I	.	.
[16e	sure	.	.
8e]	_	.	.
8.d	know	.	.
16A#	where	.	.
8B	I've	.	.
=8	=8	=8	=8
8A	been	1r	.
4.G	_	.	.
2r	.	.	.
=9	=9	=9	=9
4r	.	1r	.
16B	Hang-	.	.
16d	-in'	.	.
16d	on	.	.
16B	the	.	.
16d	pro-	.	.
16d	-mi-	.	.
4B	-ses	.	.
16A	in	.	.
16G	the	.	.
=10	=10	=10	=10
8A	songs	1r	.
16G	of	.	.
[16A	yes-	.	.
16A]	_	.	.
16A	-ter-	.	.
16G	-day	.	.
[16E	_	.	.
4E]	_	.	.
4r	.	.	.
=11	=11	=11	=11
4r	.	1r	.
16r	.	.	.
16E	And	.	.
8E	I've	.	.
8c	made	.	.
8B	up	.	.
8G	my	.	.
[8A	mind	.	.
=12	=12	=12	=12
2A]	_	1r	.
2r	.	.	.
=13	=13	=13	=13
4r	.	1r	.
16r	.	.	.
16E	I	.	.
8c	ain't	.	.
8c	wast-	.	.
16B	-in'	.	.
[16A	no	.	.
16A]	_	.	.
8.G	more	.	.
=14	=14	=14	=14
4.A	time	1r	.
8r	.	.	.
8B	Here	.	.
8A	I	.	.
8B	go	.	.
8A	a-	.	.
=15	=15	=15	=15
16G	-gain	1r	.
[8.E	_	.	.
4E]	_	.	.
2r	.	.	.
=16	=16	=16	=16
2r	.	1r	.
8A	Here	.	.
8G	I	.	.
8A	go	.	.
16d	a-	.	.
[16B	-gain	.	.
=17	=17	=17	=17
2B]	_	1r	.
2r	.	.	.
=18	=18	=18	=18
1r	.	1r	.
=19	=19	=19	=19
4r	.	1r	.
16d	Though	.	.
16d	I	.	.
8d	keep	.	.
8d	search-	.	.
8B	-in'	.	.
8A	for	.	.
16B	an	.	.
[16A	ans-	.	.
=20	=20	=20	=20
8A]	_	1r	.
4.G	-wer	.	.
2r	.	.	.
=21	=21	=21	=21
8r	.	1r	.
16r	.	.	.
16G	I	.	.
16d	ne-	.	.
16d	-ver	.	.
16d	seem	.	.
16B	to	.	.
16d	find	.	.
8.B	_	.	.
16B	what	.	.
16A	I'm	.	.
8B	look-	.	.
=22	=22	=22	=22
8A	-ing	1r	.
16G	for	.	.
[16E	_	.	.
4E]	_	.	.
2r	.	.	.
=23	=23	=23	=23
8r	.	1r	.
16g	Oh	.	.
8.g	lord	.	.
16d	I	.	.
8.e	pray	.	.
16d	you	.	.
8d	give	.	.
8d	me	.	.
[16e	strength	.	.
=24	=24	=24	=24
16e]	_	1r	.
16d	to	.	.
8e	ca-	.	.
16d	-rry	.	.
16A	on	.	.
16B	_	.	.
16A	_	.	.
4G	_	.	.
4r	.	.	.
=25	=25	=25	=25
4r	.	1r	.
16r	.	.	.
16e	'cause	.	.
8e	I	.	.
8g	know	.	.
8g	what	.	.
8g	it	.	.
8e	means	.	.
=26	=26	=26	=26
8e	_	1r	.
4.d	_	.	.
4r	.	.	.
8r	.	.	.
16r	.	.	.
16e	to	.	.
=27	=27	=27	=27
8g	walk	1r	.
16g	a-	.	.
[16g	-long	.	.
8g]	_	.	.
16r	.	.	.
16e	the	.	.
8g	lone-	.	.
8g	-ly	.	.
16b	street	.	.
16a	_	.	.
16g	of	.	.
[16a	dreams	.	.
=28	=28	=28	=28
4a]	_	1r	.
8d	_	.	.
8r	.	.	.
2r	.	.	.
=29	=29	=29	=29
8g	Here	8b	Here
16e	I	16a	I
[16d	go	[16g	go
16d]	_	16g]	_
16r	.	16r	.
16e	a-	16a	a-
[16g	-gain	[16b	-gain
8g]	_	8b]	_
8e	on	8g	on
8e	my	8g	my
16f#	own	16a	own
16e	_	16g	_
=30	=30	=30	=30
4d	_	4f#	_
4r	.	4r	.
4r	.	4r	.
8r	.	8r	.
16d	Go-	16g	Go-
16e	-ing	16a	-ing
=31	=31	=31	=31
8g	down	8b	down
16g	the	16b	the
8g	on-	8b	on-
8g	-ly	8b	-ly
8.a	road	8.cc	road
8g	I've	8b	I've
16g	e-	16b	e-
16g	-ver	16b	-ver
16f#	known	16a	known
16e	_	16g	_
=32	=32	=32	=32
8d	_	8f#	_
8r	.	8r	.
4r	.	4r	.
4r	.	4r	.
8r	.	8r	.
16d	Like	16g	Like
16e	a	16a	a
=33	=33	=33	=33
8g	drif-	8b	drif-
16e	-ter	16a	-ter
[16d	I	[16g	I
16d]	_	16g]	_
8e	was	8a	was
[16g	born	[16b	born
8.g]	_	8.b]	_
16e	to	16g	to
8e	walk	8g	walk
16e	a-	16g	a-
16e	-lone	16g	-lone
=34	=34	=34	=34
16f#	_	16a	_
16e	_	16g	_
8d	_	8f#	_
4r	.	4r	.
2r	.	2r	.
=35	=35	=35	=35
4r	.	1r	.
16r	.	.	.
16c	And	.	.
8c	I've	.	.
8c	made	.	.
8c	up	.	.
8e	my	.	.
8e	mind	.	.
=36	=36	=36	=36
4d	_	1r	.
4r	.	.	.
2r	.	.	.
=37	=37	=37	=37
4r	.	1r	.
16c	I	.	.
8c	ain't	.	.
[16c	wast-	.	.
8c]	_	.	.
8B	-in'	.	.
16A	no	.	.
8G	more	.	.
[16A	time	.	.
=38	=38	=38	=38
4A]	_	1r	.
4r	.	.	.
2r	.	.	.
=39	=39	=39	=39
8r	.	1r	.
16r	.	.	.
16B	I'm	.	.
16B	just	.	.
16d	a-	.	.
16d	-no-	.	.
16B	-ther	.	.
8d	heart	.	.
8A	in	.	.
8A	need	.	.
16A	of	.	.
16B	res-	.	.
=40	=40	=40	=40
16A	_	1r	.
8.G	-cue	.	.
4r	.	.	.
2r	.	.	.
=41	=41	=41	=41
4r	.	1r	.
16B	Wait-	.	.
16d	-in'	.	.
8d	on	.	.
4e	love's	.	.
8A	sweet	.	.
16A	char-	.	.
16B	-i-	.	.
=42	=42	=42	=42
16A	-ty	1r	.
8.G	_	.	.
4r	.	.	.
2r	.	.	.
=43	=43	=43	=43
4r	.	1r	.
16d	and	.	.
16d	I'm	.	.
16d	gon-	.	.
16d	-na	.	.
8g	hold	.	.
4e	on	.	.
16d	for	.	.
16d	the	.	.
=44	=44	=44	=44
8g	rest	1r	.
8e	of	.	.
8e	my	.	.
16B	days	.	.
16A	_	.	.
4G	_	.	.
4r	.	.	.
=45	=45	=45	=45
4r	.	1r	.
16r	.	.	.
16e	'cause	.	.
8e	I	.	.
8g	know	.	.
8g	what	.	.
8g	it	.	.
8e	means	.	.
=46	=46	=46	=46
8e	_	1r	.
4.d	_	.	.
4r	.	.	.
8r	.	.	.
16r	.	.	.
16e	to	.	.
=47	=47	=47	=47
8g	walk	1r	.
16g	a-	.	.
[16g	-long	.	.
8g]	_	.	.
16r	.	.	.
16e	the	.	.
8g	lone-	.	.
8g	-ly	.	.
16b	street	.	.
16a	_	.	.
16g	of	.	.
[16a	dreams	.	.
=48	=48	=48	=48
4a]	_	1r	.
8d	_	.	.
8r	.	.	.
4r	.	.	.
8.r	.	.	.
16d	And	.	.
=49	=49	=49	=49
8g	here	8b	Here
16e	I	16a	I
[16d	go	[16g	go
16d]	_	16g]	_
16r	.	16r	.
16e	a-	16a	a-
[16g	-gain	[16b	-gain
8g]	_	8b]	_
8e	on	8g	on
8e	my	8g	my
16f#	own	16a	own
16e	_	16g	_
=50	=50	=50	=50
4d	_	4f#	_
4r	.	4r	.
4r	.	4r	.
8r	.	8r	.
16d	Go-	16g	Go-
16e	-ing	16a	-ing
=51	=51	=51	=51
8g	down	8b	down
16g	the	16b	the
8g	on-	8b	on-
8g	-ly	8b	-ly
8.a	road	8.cc	road
8g	I've	8b	I've
16g	e-	16b	e-
16g	-ver	16b	-ver
16f#	known	16a	known
16e	_	16g	_
=52	=52	=52	=52
8d	_	8f#	_
8r	.	8r	.
4r	.	4r	.
4r	.	4r	.
8r	.	8r	.
16d	Like	16g	Like
16e	a	16a	a
=53	=53	=53	=53
8g	drif-	8b	drif-
16e	-ter	16a	-ter
[16d	I	[16g	I
16d]	_	16g]	_
8e	was	8a	was
[16g	born	[16b	born
8.g]	_	8.b]	_
16e	to	16g	to
8e	walk	8g	walk
16e	a-	16g	a-
16e	-lone	16g	-lone
=54	=54	=54	=54
16f#	_	16a	_
16e	_	16g	_
8d	_	8f#	_
4r	.	4r	.
2r	.	2r	.
=55	=55	=55	=55
4r	.	1r	.
16r	.	.	.
16e	And	.	.
8e	I've	.	.
8b	made	.	.
8a	up	.	.
8g	my	.	.
[8a	mind	.	.
=56	=56	=56	=56
8a]	_	1r	.
8d	_	.	.
4r	.	.	.
2r	.	.	.
=57	=57	=57	=57
4r	.	1r	.
16r	.	.	.
16g	I	.	.
8g	ain't	.	.
8b	wast-	.	.
16a	-in'	.	.
[16g	no	.	.
16g]	_	.	.
8g	more	.	.
[16a	time	.	.
=58	=58	=58	=58
8a]	_	1r	.
8d	_	.	.
8r	.	.	.
8d	And	.	.
8b	here	.	.
8a	I	.	.
8b	go	.	.
16a	a-	.	.
16g	-gain	.	.
=59	=59	=59	=59
4e	_	1r	.
4r	.	.	.
2r	.	.	.
=60	=60	=60	=60
2r	.	1r	.
8b	Here	.	.
8b	I	.	.
8b	go	.	.
16a	a-	.	.
[16g	-gain	.	.
=61	=61	=61	=61
16g]	_	1r	.
8.e	_	.	.
4r	.	.	.
2r	.	.	.
=62	=62	=62	=62
2r	.	1r	.
8a	Here	.	.
8g	I	.	.
8a	go	.	.
16g	a-	.	.
[16b	-gain	.	.
=63	=63	=63	=63
8b]	_	1r	.
16dd	_	.	.
16b	_	.	.
16a	_	.	.
16g	_	.	.
8e	_	.	.
2r	.	.	.
=64	=64	=64	=64
2r	.	1r	.
8a	Here	.	.
8g	I	.	.
[4ff#	go	.	.
=65	=65	=65	=65
4.ff#]	_	1r	.
4.ee	_	.	.
4r	.	.	.
=66	=66	=66	=66
1r	.	1r	.
=67	=67	=67	=67
1r	.	1r	.
=68	=68	=68	=68
1r	.	1r	.
=69	=69	=69	=69
1r	.	1r	.
=70	=70	=70	=70
1r	.	1r	.
=71	=71	=71	=71
1r	.	1r	.
=72	=72	=72	=72
1r	.	1r	.
=73	=73	=73	=73
4r	.	1r	.
16r	.	.	.
16e	'cause	.	.
8e	I	.	.
8g	know	.	.
8g	what	.	.
8g	it	.	.
8e	means	.	.
=74	=74	=74	=74
8e	_	1r	.
4.d	_	.	.
4r	.	.	.
8r	.	.	.
16r	.	.	.
16e	to	.	.
=75	=75	=75	=75
8g	walk	1r	.
16g	a-	.	.
[16g	-long	.	.
8g]	_	.	.
16r	.	.	.
16e	the	.	.
8g	lone-	.	.
8g	-ly	.	.
16b	street	.	.
16a	_	.	.
16g	of	.	.
[16a	dreams	.	.
=76	=76	=76	=76
8a]	_	1r	.
8b	_	.	.
4r	.	.	.
4r	.	.	.
8r	.	.	.
16r	.	.	.
16d	And	.	.
=77	=77	=77	=77
8g	here	8b	Here
16e	I	16a	I
[16d	go	[16g	go
16d]	_	16g]	_
16r	.	16r	.
16e	a-	16a	a-
[16g	-gain	[16b	-gain
8g]	_	8b]	_
8e	on	8g	on
8e	my	8g	my
16f#	own	16a	own
16e	_	16g	_
=78	=78	=78	=78
4d	_	4f#	_
4r	.	4r	.
4r	.	4r	.
8r	.	8r	.
16d	Go-	16g	Go-
16e	-ing	16a	-ing
=79	=79	=79	=79
8g	down	8b	down
16g	the	16b	the
8g	on-	8b	on-
8g	-ly	8b	-ly
8.a	road	8.cc	road
8g	I've	8b	I've
16g	e-	16b	e-
16g	-ver	16b	-ver
[8a	known	[8cc	known
=80	=80	=80	=80
16a]	_	16cc]	_
16b	_	16dd	_
8r	.	8r	.
4r	.	4r	.
4r	.	4r	.
8r	.	8r	.
16d	Like	16g	Like
16e	a	16a	a
=81	=81	=81	=81
8g	drif-	8b	drif-
16e	-ter	16a	-ter
[16d	I	[16g	I
16d]	_	16g]	_
8e	was	8a	was
[16g	born	[16b	born
8.g]	_	8.b]	_
16e	to	16g	to
8e	walk	8g	walk
16e	a-	16g	a-
16e	-lone	16g	-lone
=82	=82	=82	=82
16f#	_	16a	_
16e	_	16g	_
8d	_	8f#	_
4r	.	4r	.
2r	.	2r	.
=83	=83	=83	=83
4r	.	1r	.
16r	.	.	.
16e	And	.	.
8e	I've	.	.
8b	made	.	.
8a	up	.	.
8g	my	.	.
[8a	mind	.	.
=84	=84	=84	=84
8a]	_	1r	.
8d	_	.	.
4r	.	.	.
2r	.	.	.
=85	=85	=85	=85
4r	.	1r	.
16r	.	.	.
16g	I	.	.
8g	ain't	.	.
8b	wast-	.	.
16a	-in'	.	.
[16g	no	.	.
16g]	_	.	.
8g	more	.	.
[16a	time	.	.
=86	=86	=86	=86
8a]	_	1r	.
8d	_	.	.
8r	.	.	.
8r	.	.	.
4r	.	.	.
8r	.	.	.
16r	.	.	.
16d	And	.	.
=87	=87	=87	=87
8g	here	8b	Here
16e	I	16a	I
[16d	go	[16g	go
16d]	_	16g]	_
16r	.	16r	.
16e	a-	16a	a-
[16g	-gain	[16b	-gain
8g]	_	8b]	_
8e	on	8g	on
8e	my	8g	my
16f#	own	16a	own
16e	_	16g	_
=88	=88	=88	=88
4d	_	4f#	_
4r	.	4r	.
4r	.	4r	.
8r	.	8r	.
16d	Go-	16g	Go-
16e	-ing	16a	-ing
=89	=89	=89	=89
8g	down	8b	down
16g	the	16b	the
8g	on-	8b	on-
8g	-ly	8b	-ly
8.a	road	8.cc	road
8g	I've	8b	I've
16g	e-	16b	e-
16g	-ver	16b	-ver
[8a	known	[8cc	known
=90	=90	=90	=90
16a]	_	16cc]	_
16b	_	16dd	_
8r	.	8r	.
4r	.	4r	.
4r	.	4r	.
8r	.	8r	.
16d	Like	16g	Like
16e	a	16a	a
=91	=91	=91	=91
8g	drif-	8b	drif-
16e	-ter	16a	-ter
[16d	I	[16g	I
16d]	_	16g]	_
8e	was	8a	was
[16g	born	[16b	born
8.g]	_	8.b]	_
16e	to	16g	to
8e	walk	8g	walk
16e	a-	16g	a-
16e	-lone	16g	-lone
=92	=92	=92	=92
16f#	_	16a	_
16e	_	16g	_
8d	_	8f#	_
4r	.	4r	.
2r	.	2r	.
=93	=93	=93	=93
4r	.	1r	.
16r	.	.	.
16e	'Cause	.	.
8e	I	.	.
8b	know	.	.
8a	what	.	.
8g	it	.	.
[8a	means	.	.
=94	=94	=94	=94
8a]	_	1r	.
8d	_	.	.
4r	.	.	.
4r	.	.	.
8.r	.	.	.
16e	To	.	.
=95	=95	=95	=95
8g	walk	1r	.
16g	a-	.	.
[16g	-long	.	.
8g]	_	.	.
16r	.	.	.
16g	the	.	.
8b	lon-	.	.
8cc	-ely	.	.
8.dd	street	.	.
16dd	of	.	.
=96	=96	=96	=96
8b	dreams	1r	.
8a	_	.	.
4r	.	.	.
4r	.	.	.
8r	.	.	.
16r	.	.	.
16d	And	.	.
=97	=97	=97	=97
8g	here	8b	Here
16e	I	16a	I
[16d	go	[16g	go
16d]	_	16g]	_
16r	.	16r	.
16e	a-	16a	a-
[16g	-gain	[16b	-gain
8g]	_	8b]	_
8e	on	8g	on
8e	my	8g	my
16f#	own	16a	own
16e	_	16g	_
=98	=98	=98	=98
4d	_	4f#	_
4r	.	4r	.
4r	.	4r	.
8r	.	8r	.
16d	Go-	16g	Go-
16e	-ing	16a	-ing
=99	=99	=99	=99
8g	down	8b	down
16g	the	16b	the
8g	on-	8b	on-
8g	-ly	8b	-ly
8.a	road	8.cc	road
8g	I've	8b	I've
16g	e-	16b	e-
16g	-ver	16b	-ver
[8a	known	[8cc	known
=100	=100	=100	=100
16a]	_	16cc]	_
16b	_	16dd	_
8r	.	8r	.
4r	.	4r	.
4r	.	4r	.
8r	.	8r	.
16d	Like	16g	Like
16e	a	16a	a
=101	=101	=101	=101
8g	drif-	8b	drif-
16e	-ter	16a	-ter
[16d	I	[16g	I
16d]	_	16g]	_
8e	was	8a	was
[16g	born	[16b	born
8.g]	_	8.b]	_
16e	to	16g	to
8e	walk	8g	walk
16e	a-	16g	a-
16e	-lone	16g	-lone
=102	=102	=102	=102
16f#	_	16a	_
16e	_	16g	_
8d	_	8f#	_
4r	.	4r	.
2r	.	2r	.
r;	.	r;	.
r;	.	r;	.
*-	*-	*-	*-
!!!ENC: Nathaniel Condit-Schultz
!!!MBID: f0c8a007-fc9d-4e75-af94-19541cab2af3
